X: 08007
T: AUNT MADDIE'S REEL
C: Bob McQuillen 26 Jan 91
B: Bob's Note Book 8 #7
%R: reel
Z: 2021 John Chambers <jc:trillian.mit.edu>
M: C
L: 1/8
K: D
de \
| fded B2de | fedB A2BA | FABd efdB | A2 F4 de |\
| fded B2de | fedB AFBA | FABd edfe | d2 B4 :|
|: df \
| a2 a4  ba | fded BAdf | a2 a4  ba | fafd efdf |\
| a2a2 faba | fded B2fe | dBAF ABde | d2 B4 :|
%%begintext align
%% When I was
%% young, I had a wonderful stepmother named
%% Madelaine [Pond?] McQuillen. I called her Aunt Maddie.
%% She taught me to drive, was a terrific cook, and
%% made home-made peach icecream, using fresh peaches,
%% that I have never seen equalled. Jan 26 was her birthday.
%%endtext

%%sep 1 1 500

%%sep 1 1 500

